svg/fluentui-system-icons/ic_fluent_location_dismiss_20_filled.svg

<svg width="20" height="20" viewBox="0 0 20 20" fill="none" xmlns="http://www.w3.org/2000/svg">
<path d="M14.9497 4.05115C17.6834 6.78601 17.6834 11.2201 14.9497 13.955L13.8223 15.0691L11.3861 17.4391C10.6562 18.1455 9.52168 18.1847 8.74691 17.5567L8.61408 17.4389L6.57128 15.4538L5.05025 13.955C2.31658 11.2201 2.31658 6.78601 5.05025 4.05115C7.78392 1.31628 12.2161 1.31628 14.9497 4.05115ZM7.14645 6.14645C6.95118 6.34171 6.95118 6.65829 7.14645 6.85355L9.29289 9L7.14645 11.1464C6.95118 11.3417 6.95118 11.6583 7.14645 11.8536C7.34171 12.0488 7.65829 12.0488 7.85355 11.8536L10 9.70711L12.1464 11.8536C12.3417 12.0488 12.6583 12.0488 12.8536 11.8536C13.0488 11.6583 13.0488 11.3417 12.8536 11.1464L10.7071 9L12.8536 6.85355C13.0488 6.65829 13.0488 6.34171 12.8536 6.14645C12.6583 5.95118 12.3417 5.95118 12.1464 6.14645L10 8.29289L7.85355 6.14645C7.65829 5.95118 7.34171 5.95118 7.14645 6.14645Z" fill="#212121"/>
</svg>

<svg xmlns="http://www.w3.org/2000/svg" width="20" height="20"><path d="M14.95 4.051a7.005 7.005 0 0 1 0 9.904l-1.128 1.114-2.436 2.37a1.993 1.993 0 0 1-2.64.118l-.132-.118-2.043-1.985-1.52-1.499a7.005 7.005 0 0 1 0-9.904 6.998 6.998 0 0 1 9.899 0ZM7.146 6.146a.5.5 0 0 0 0 .708L9.293 9l-2.147 2.146a.5.5 0 0 0 .708.708L10 9.707l2.146 2.147a.5.5 0 0 0 .708-.708L10.707 9l2.147-2.146a.5.5 0 0 0-.708-.708L10 8.293 7.854 6.146a.5.5 0 0 0-.708 0Z"/></svg>
